public/cloud-icons/azure/ai/microsoft-fabric.svg

<?xml version="1.0" encoding="UTF-8" standalone="no"?>
<!-- Generated by Microsoft Visio, SVG Export Microsoft Fabric.svg Page-1 -->

<svg
   xmlns:dc="http://purl.org/dc/elements/1.1/"
   xmlns:cc="http://creativecommons.org/ns#"
   xmlns:rdf="http://www.w3.org/1999/02/22-rdf-syntax-ns#"
   xmlns:svg="http://www.w3.org/2000/svg"
   xmlns="http://www.w3.org/2000/svg"
   xmlns:sodipodi="http://sodipodi.sourceforge.net/DTD/sodipodi-0.dtd"
   xmlns:inkscape="http://www.inkscape.org/namespaces/inkscape"
   width="57.1716"
   height="56.665321"
   viewBox="0 0 57.1716 56.665323"
   xml:space="preserve"
   class="st4"
   version="1.1"
   id="svg55"
   sodipodi:docname="Microsoft Fabric.svg"
   style="font-size:12px;overflow:visible;color-interpolation-filters:sRGB;fill:none;fill-rule:evenodd;stroke-linecap:square;stroke-miterlimit:3"
   inkscape:version="0.92.5 (2060ec1f9f, 2020-04-08)"><metadata
   id="metadata59"><rdf:RDF><cc:Work
       rdf:about=""><dc:format>image/svg+xml</dc:format><dc:type
         rdf:resource="http://purl.org/dc/dcmitype/StillImage" /></cc:Work></rdf:RDF></metadata><sodipodi:namedview
   pagecolor="#ffffff"
   bordercolor="#666666"
   borderopacity="1"
   objecttolerance="10"
   gridtolerance="10"
   guidetolerance="10"
   inkscape:pageopacity="0"
   inkscape:pageshadow="2"
   inkscape:window-width="640"
   inkscape:window-height="480"
   id="namedview57"
   showgrid="false"
   inkscape:zoom="2.2807001"
   inkscape:cx="28.588631"
   inkscape:cy="17.675796"
   inkscape:window-x="0"
   inkscape:window-y="0"
   inkscape:window-maximized="0"
   inkscape:current-layer="svg55" />
	<style
   type="text/css"
   id="style2">
	<![CDATA[
		.st1 {fill:url(#grad0-6);stroke:none;stroke-linecap:butt;stroke-width:12.75}
		.st2 {fill:url(#grad0-10);stroke:none;stroke-linecap:butt;stroke-width:12.75}
		.st3 {fill:url(#grad0-14);stroke:none;stroke-linecap:butt;stroke-width:12.75}
		.st4 {fill:none;fill-rule:evenodd;font-size:12px;overflow:visible;stroke-linecap:square;stroke-miterlimit:3}
	]]>
	</style>

	<defs
   id="Patterns_And_Gradients">
		<linearGradient
   id="grad0-6"
   x1="-0.46856334"
   y1="92.32269"
   x2="22.492283"
   y2="92.32269"
   gradientTransform="scale(1.1146045,0.89717923)"
   gradientUnits="userSpaceOnUse">
			<stop
   offset="0.055"
   stop-color="#2aac94"
   stop-opacity="1"
   id="stop4" />
			<stop
   offset="0.155"
   stop-color="#239c87"
   stop-opacity="1"
   id="stop6" />
			<stop
   offset="0.37"
   stop-color="#177e71"
   stop-opacity="1"
   id="stop8" />
			<stop
   offset="0.59"
   stop-color="#0e6961"
   stop-opacity="1"
   id="stop10" />
			<stop
   offset="0.8"
   stop-color="#095d57"
   stop-opacity="1"
   id="stop12" />
			<stop
   offset="1"
   stop-color="#085954"
   stop-opacity="1"
   id="stop14" />
		</linearGradient>
		<linearGradient
   id="grad0-10"
   x1="0"
   y1="89.306554"
   x2="34.606589"
   y2="89.306554"
   gradientTransform="scale(1.1974598,0.83510109)"
   gradientUnits="userSpaceOnUse">
			<stop
   offset="0.04"
   stop-color="#abe88e"
   stop-opacity="1"
   id="stop17" />
			<stop
   offset="0.55"
   stop-color="#2aaa92"
   stop-opacity="1"
   id="stop19" />
			<stop
   offset="0.905"
   stop-color="#117865"
   stop-opacity="1"
   id="stop21" />
		</linearGradient>
		<linearGradient
   id="grad0-14"
   x1="0"
   y1="92.453786"
   x2="40.993013"
   y2="92.453786"
   gradientTransform="scale(1.2895902,0.77544011)"
   gradientUnits="userSpaceOnUse">
			<stop
   offset="0.045"
   stop-color="#25ffd4"
   stop-opacity="1"
   id="stop24" />
			<stop
   offset="0.875"
   stop-color="#55ddb9"
   stop-opacity="1"
   id="stop26" />
		</linearGradient>
	</defs>
	<g
   id="g53"
   transform="translate(-12.749469,-12.748973)">
		<title
   id="title30">Page-1</title>
		<g
   id="group19609-1"
   transform="translate(13.1488,-34.0157)">
			<title
   id="title32">Microsoft Fabric.19609</title>
			<g
   id="group19610-2">
				<title
   id="title34">g24</title>
				<g
   id="shape19611-3"
   transform="translate(0.122932)">
					<title
   id="title36">path4</title>
					<path
   d="M 1.82,85.86 0.98,88.9 C 0.67,89.87 0.24,91.3 0,92.57 a 8.0463,7.97353 -180 0 0 6.63,10.75 c 1.13,0.16 2.41,0.15 3.85,-0.06 l 6.59,-0.9 a 4.17967,4.14187 -180 0 0 3.46,-3.01 l 4.54,-16.52 z"
   class="st1"
   id="path38"
   inkscape:connector-curvature="0"
   style="fill:url(#grad0-6);stroke:none;stroke-width:12.75;stroke-linecap:butt" />
				</g>
				<g
   id="shape19612-7"
   transform="translate(0,-10.57)">
					<title
   id="title41">path6</title>
					<path
   d="M 8.38,97.21 C 1.43,98.28 0,103.48 0,103.48 L 6.66,79.24 41.44,74.58 36.7,91.65 a 2.43862,2.41656 0 0 1 -1.99,1.76 l -0.19,0.03 -26.34,3.81 z"
   class="st2"
   id="path43"
   inkscape:connector-curvature="0"
   style="fill:url(#grad0-10);stroke:none;stroke-width:12.75;stroke-linecap:butt" />
				</g>
				<g
   id="shape19613-11"
   transform="translate(3.90808,-24.9277)">
					<title
   id="title46">path10</title>
					<path
   d="m 8.41,96.11 38.51,-5.64 a 2.28281,2.26216 -180 0 0 1.89,-1.66 L 52.78,74.56 A 2.27995,2.25933 -180 0 0 50.3,71.71 L 13.56,77.09 A 10.2705,10.1776 -180 0 0 5.3,84.45 L 0,103.48 c 1.06,-3.85 1.72,-6.17 8.41,-7.37 z"
   class="st3"
   id="path48"
   inkscape:connector-curvature="0"
   style="fill:url(#grad0-14);stroke:none;stroke-width:12.75;stroke-linecap:butt" />
				</g>
			</g>
		</g>
	</g>
</svg>

<svg xmlns="http://www.w3.org/2000/svg" xml:space="preserve" width="57.172" height="56.665" style="font-size:12px;overflow:visible;color-interpolation-filters:sRGB;fill-rule:evenodd;stroke-linecap:square;stroke-miterlimit:3" viewBox="0 0 57.172 56.665"><defs><linearGradient id="a" x1="-.469" x2="22.492" y1="92.323" y2="92.323" gradientTransform="scale(1.1146 .89718)" gradientUnits="userSpaceOnUse"><stop offset=".055" stop-color="#2aac94"/><stop offset=".155" stop-color="#239c87"/><stop offset=".37" stop-color="#177e71"/><stop offset=".59" stop-color="#0e6961"/><stop offset=".8" stop-color="#095d57"/><stop offset="1" stop-color="#085954"/></linearGradient><linearGradient id="b" x1="0" x2="34.607" y1="89.307" y2="89.307" gradientTransform="scale(1.19746 .8351)" gradientUnits="userSpaceOnUse"><stop offset=".04" stop-color="#abe88e"/><stop offset=".55" stop-color="#2aaa92"/><stop offset=".905" stop-color="#117865"/></linearGradient><linearGradient id="c" x1="0" x2="40.993" y1="92.454" y2="92.454" gradientTransform="scale(1.28959 .77544)" gradientUnits="userSpaceOnUse"><stop offset=".045" stop-color="#25ffd4"/><stop offset=".875" stop-color="#55ddb9"/></linearGradient></defs><g transform="translate(-12.75 -12.749)"><title>Page-1</title><g transform="translate(13.149 -34.016)"><title>Microsoft Fabric.19609</title><title>g24</title><g transform="translate(.123)"><title>path4</title><path d="M1.82 85.86.98 88.9c-.31.97-.74 2.4-.98 3.67a8.046 7.974-180 0 0 6.63 10.75c1.13.16 2.41.15 3.85-.06l6.59-.9a4.18 4.142-180 0 0 3.46-3.01l4.54-16.52z" style="fill:url(#a);stroke:none;stroke-width:12.75;stroke-linecap:butt"/></g><g transform="translate(0 -10.57)"><title>path6</title><path d="M8.38 97.21C1.43 98.28 0 103.48 0 103.48l6.66-24.24 34.78-4.66-4.74 17.07a2.439 2.417 0 0 1-1.99 1.76l-.19.03-26.34 3.81z" style="fill:url(#b);stroke:none;stroke-width:12.75;stroke-linecap:butt"/></g><g transform="translate(3.908 -24.928)"><title>path10</title><path d="m8.41 96.11 38.51-5.64a2.283 2.262-180 0 0 1.89-1.66l3.97-14.25a2.28 2.26-180 0 0-2.48-2.85l-36.74 5.38a10.27 10.178-180 0 0-8.26 7.36L0 103.48c1.06-3.85 1.72-6.17 8.41-7.37" style="fill:url(#c);stroke:none;stroke-width:12.75;stroke-linecap:butt"/></g></g></g></svg>
